X:40
T:The Seven Men of Glenmoriston
C:Calum Stewart
S:Calum Stewart - Tales from the North
Z:robin.beech@mcgill.ca
M:9/8
L:1/8
K:Ador
A2g fdA c2d | edc Bdc BAG | A2g fdA cde | gfd- dec BGE ||
F2A ABc BGE | F2A ABc B3 | edc d2e A2e | fed dec BGE
